X:1
T:Cooley's
R:hornpipe
M:4/4
L:1/8
K:G
(3def|:gG (3GFG EGDC|B,G,B,D GBdg|(3ege ce (3ded Bd|cAAG Ad (3def|
|gG (3GFG EGDC|B,G,B,D GBdg|ecAG FAdc|1 BGGF GB (3def:|2 BGGF G2GA|]
|:BA (3Bcd edBd|~g2bg egdB|dgge dBGA|BAAG Ad^cd|
|BGFG ~E2cE|EEcE DGBd|gfge ddcA|1 ~B2GF G2GA:|2 ~B2GF GB (3def|]